X:170
T: Tin Wedding
M: 4/4
L: 1/8
S: Luke O'Malley vol 1
Z: B.Black
R: hornpipe
K: C
(3GAB |cG G2 EGCG|(3FGF DG (3FGF DG|EGcd ecfe|\
(3ded (3cBA G2 AB|
cG G2 (3EFG CE |FGDG (3FGF DG |EGcd edcB |c2 e2 c2 :|
Bc | dBGB dBgf | ecGc ecag | ^fdAd fdba |\
(3gag (3fgf (3efe (3ded|
cG G2 EGCG |(3FGF DG (3FGF DG |EGcd edcB |c2 e2 c2 :|
P: version in D
K: D
(3ABc |dA A2 FADA|(3GAG EA (3GAG EA|FAde fdgf|\
(3efe (3dcB A2 Bc|
dA A2 (3FGA DF | GAEA (3GAG EA | FAde fedc | d2 f2 d2 :|
cd | ecAc ecag | fdAd fdba | ^geBe gec'b |\
(3aba (3gag (3fgf (3efe|
dA A2 FADA | (3GAG EA (3GAG EA | FAde fedc | d2 f2 d2 :|
